!!!COM: Palestrina, Giovanni Perluigi da
!!!OPR: Missa L'homme arme (1570)
!!!OMD: Sanctus
!!!OTL: Pleni
**kern	**kern	**kern	**kern
*Itenor	*Itenor	*Icant	*Icant
!Tenor 2	!Tenor 1	!Cantus 2	!Cantus 1
*clefGv2	*clefGv2	*clefG2	*clefG2
*k[]	*k[]	*k[]	*k[]
*G:mix	*G:mix	*G:mix	*G:mix
*M4/2	*M4/2	*M4/2	*M4/2
=38	=38	=38	=38
1d	0r	0r	0r
2d	.	.	.
2d	.	.	.
=39	=39	=39	=39
1e	0r	0r	1r
2d	.	.	1dd
4G	.	.	.
4A	.	.	.
=40	=40	=40	=40
4B	0r	0r	2dd
4c	.	.	.
4d	.	.	2dd
4B	.	.	.
4c	.	.	1ee
4d	.	.	.
4e	.	.	.
4f#	.	.	.
=41	=41	=41	=41
1g	0r	1dd	2dd
.	.	.	4g
.	.	.	4a
1g	.	2dd	4b
.	.	.	4cc
.	.	2dd	4dd
.	.	.	4b
=42	=42	=42	=42
1c	0r	1ee	1cc
[1g	.	2dd	2.b
.	.	4g	.
.	.	4a	4cc
=43	=43	=43	=43
2g]	0r	4b	1dd
.	.	4cc	.
2f	.	2.dd	.
2.e	.	.	1ee
.	.	4cc	.
.	.	[2cc	.
8d	.	.	.
8c	.	.	.
=44	=44	=44	=44
1d	0r	2cc]	1ff
.	.	2b	.
1c	.	2cc	2ee
.	.	2ee	[2cc
=45	=45	=45	=45
1G	1r	1dd	2cc]
.	.	.	4b
.	.	.	4a
2r	[1g	2r	[1b
2G	.	2dd	.
=46	=46	=46	=46
2G	1g]	2dd	1b]
2G	.	2dd	.
1c	1g	1ee	1cc
=47	=47	=47	=47
2d	0f	2.dd	1a
2d	.	.	.
.	.	8cc	.
.	.	8b	.
2.d	.	1a	2r
.	.	.	2a
8c	.	.	.
8B	.	.	.
=48	=48	=48	=48
2A	1f	1r	2a
2d	.	.	2a
[1G	[1g	1dd	2b
.	.	.	4g
.	.	.	4a
=49	=49	=49	=49
1G]	1g]	2dd	4b
.	.	.	4cc
.	.	4g	2.dd
.	.	4a	.
1r	1g	4b	.
.	.	4cc	4cc
.	.	[2dd	2b
=50	=50	=50	=50
0r	[0d	4dd]	2a
.	.	4cc	.
.	.	2b	2.dd
.	.	2a	.
.	.	.	4cc
.	.	2dd	2b
=51	=51	=51	=51
1r	1d]	2cc	2a
.	.	2b	1g
1d	1r	1a	.
.	.	.	2f#
=52	=52	=52	=52
2c	0r	2r	1g
2B	.	2dd	.
2.e	.	2cc	1r
.	.	2b	.
4d	.	.	.
=53	=53	=53	=53
2c	0g	2ee	2r
2B	.	2dd	2dd
2c	.	2ee	2cc
2G	.	2dd	2b
=54	=54	=54	=54
1c	1g	2.cc	1ee
.	.	4b	.
[1d	[1f	[1a	[1dd
=55	=55	=55	=55
1d]	1f]	1a]	2dd]
.	.	.	4cc
.	.	.	4b
1d	1f	2r	4a
.	.	.	4g
.	.	2dd	2a
=56	=56	=56	=56
2e	0g	2cc	1g
2e	.	2b	.
2.c	.	2.ee	1r
4d	.	4dd	.
=57	=57	=57	=57
4e	1g	2cc	0r
4f	.	.	.
1g	.	2b	.
.	1d	1a	.
2f#	.	.	.
=58	=58	=58	=58
1g	0r	2g	1dd
.	.	2b	.
1r	.	2a	2cc
.	.	2g	2b
=59	=59	=59	=59
0r	0r	4cc	2.ee
.	.	4b	.
.	.	4cc	.
.	.	4dd	4dd
.	.	4ee	2cc
.	.	4ff	.
.	.	[2gg	2b
=60	=60	=60	=60
1d	1r	2gg]	1a
.	.	2ff	.
2c	[1g	2ee	2r
2B	.	2dd	2dd
=61	=61	=61	=61
2.e	1g]	1r	2cc
.	.	.	2b
4d	.	.	.
2c	1g	2r	2ee
2B	.	2gg	[2dd
=62	=62	=62	=62
1A	0a	2ff	4dd]
.	.	.	4cc
.	.	2ee	2cc
1F	.	1ff	2a
.	.	.	[2cc
=63	=63	=63	=63
1G	1g	2ee	2cc]
.	.	1dd	2b
[1d	[1f	.	2a
.	.	4cc	[2ff
.	.	4b	.
=64	=64	=64	=64
1d]	1f]	0a	4ff]
.	.	.	4ee
.	.	.	1dd
1A	1e	.	.
.	.	.	2cc#
=65	=65	=65	=65
1d	1d	2r	1dd
.	.	2.dd	.
1g	1r	.	2r
.	.	4cc	.
.	.	2b	2dd
=66	=66	=66	=66
2f	0r	2a	2dd
2e	.	2b	2ee
2.a	.	2.cc	2.ff
4g	.	4b	4ee
=67	=67	=67	=67
2f	0r	2a	2dd
2e	.	2g	2cc#
2d	.	2a	1dd
2d	.	2ff	.
=68	=68	=68	=68
2c	0g	2ee	0r
2B	.	2dd	.
2.e	.	2.gg	.
4d	.	4ff	.
=69	=69	=69	=69
2c	1g	2ee	1r
2B	.	2dd	.
2A	[1a	2cc	2r
2d	.	2dd	2ff
=70	=70	=70	=70
2c	1a]	2r	2ee
2d	.	2dd	2ff
2.e	[1g	2cc	2.gg
.	.	2b	.
4d	.	.	4ff
=71	=71	=71	=71
4c	1g]	2.cc	4ee
4B	.	.	4dd
2c	.	.	2.ee
.	.	4b-	.
1d	1f	[1a	.
.	.	.	4dd
.	.	.	[2dd
=72	=72	=72	=72
1A	1e	1a]	2dd]
.	.	.	2cc#
[1d	[1d	[1a	[1dd
=73	=73	=73	=73
1d]	1d]	1a]	1dd]
*-	*-	*-	*-
!!!CDT: 1525/^1526/-1594/2/2
!!!OCY: Italia
!!!AGN: Mass (Tenor)
!!!AST: renaissance, vocal
!!!ASW: Popular Song
!!!PWK: Masses, Book 3
!!!RNB: Cadence finals: C,D
!!!YOR: Le Opere Complete, v. 6, p. 97
!!!YOO: Rome, Italy: Fratelli Scalera
!!!END: 1992//
!!!EED: John Miller
!!!YEC: Copyright 2000, John Miller
!!!YEN: United States of America
!!!YEM: Rights to all derivative electronic formats reserved.
!!!YEM: Refer to licensing agreement for further details.
!!!YEM: This file must be accompanied by the licensing agreement.
!!!YEM: A copy of the licensing agreement may be found at http://www.music-cog.ohio-state.edu/HumdrumDatabases/Palestrina/license.txt
!!!EMD: converted to Humdrum by Bret Aarden
